!!!!SEGMENT: pl-kk--kk-i-7--050-003_cadeac-pierre--missa-ego-sum-sanctus.krn
!!!cenid: 16xx:866
!!!COM: Cadéac, Pierre
!!!COM-rismID: pe30006011
!!!CDT: ~1500-~1599
!!!CNT: German
!!!OPR: Missa Ego sum
!!!OTL: Sanctus
!!!OMV: 003
!!!PDT:
!!!AGN: Sacred; Mass
!!!SMS-siglum: PL-Kk
!!!SMS-shelfmark: Kk.I.7
!!!SMS-shelfwork: 050-003 M
!!!SMS-variant:
!!!SMS-altvar:
!!!NIFC-rismSourceID: 300258127
!!!NIFC-islandoraID: pl-kk:1956
!!!URL-pdf-islandora: https://repozytorium.nifc.pl/islandora/object/pl-kk%3A1956/datastream/PDF/view
!!!URL-scan: https://polish.musicsources.pl/pl/lokalizacje/galeria/rekopisy/6140 @EN{Scan on Polish Music Sources Website} @PL{Skany w portalu Dziedzictwo Muzyki Polskiej w otwartym dostępie}
!!!ONB-nifc: UWAGA: C (skan 0046-0047, s.87-88), A (0131, s.82), T (0207, s.76-77), B (0295, s.77). Części Mszy: 1. Kyrie, 2. Et in terra, 3. Sanctus
!!!AIN: 1 alto 1 bass 1 soprn 1 tenor
!!!key:
**kern	**text	**kern	**text	**kern	**text	**kern	**text
*part4	*part4	*part3	*part3	*part2	*part2	*part1	*part1
*staff4	*staff4	*staff3	*staff3	*staff2	*staff2	*staff1	*staff1
*Ibass	*	*Itenor	*	*Ialto	*	*Isoprn	*
*I"BASSVS.	*	*I"TENOR.	*	*I"ALTVS.	*	*I"CANTVS.	*
*I'B	*	*I'T	*	*I'A	*	*I'S	*
*clefC4	*	*clefC3	*	*clefC2	*	*clefG2	*
*k[]	*	*k[]	*	*k[]	*	*k[]	*
*d:dor	*	*d:dor	*	*d:dor	*	*d:dor	*
*M2/1	*	*M2/1	*	*M2/1	*	*M2/1	*
*met(C|)	*	*met(C|)	*	*met(C|)	*	*met(C|)	*
*>[A,B,C,D,C]	*	*>[A,B,C,D,C]	*	*>[A,B,C,D,C]	*	*>[A,B,C,D,C]	*
=1-	=1-	=1-	=1-	=1-	=1-	=1-	=1-
*>A	*	*>A	*	*>A	*	*>A	*
*	*	*	*	*lig	*	*	*
!LO:TX:t=P:problem=przed kluczem inicjał S	!	!LO:TX:t=P:problem=przed kluczem inicjał S	!	!LO:TX:t=P:problem=przed kluczem inicjał S	!	!LO:TX:t=P:problem=przed kluczem inicjał S	!
00r	.	00r	.	1c	San	1rb	.
.	.	.	.	1.g	.	1g	San-
*	*	*	*	*Xlig	*	*	*
=2-	=2-	=2-	=2-	=2-	=2-	=2-	=2-
.	.	.	.	.	.	0dd	.
.	.	.	.	4f\	.	.	.
.	.	.	.	4e\	.	.	.
*	*	*	*	*2\right	*	*	*
.	.	.	.	2f\	.	.	.
.	.	.	.	2g\	.	.	.
=3-	=3-	=3-	=3-	=3-	=3-	=3-	=3-
*	*	*	*	*lig	*	*	*
!	!	!LO:TX:t=P:problem=kreska pseudotaktowa	!	!	!	!	!
00r	.	1r	.	1c	ctus	1cc	.
*	*	*lig	*	*	*	*2\right	*
!	!	!	!	!LO:TX:t=P:problem=kreska pseudotaktowa	!	!	!
.	.	1G	San-	1g	.	2b\	.
.	.	.	.	.	.	1dd\	.
*	*	*	*	*Xlig	*	*	*
=4-	=4-	=4-	=4-	=4-	=4-	=4-	=4-
*	*	*	*	*	*ij	*	*
.	.	1.d	.	1.f	San-	.	.
.	.	.	.	.	.	4cc\	.
.	.	.	.	.	.	4b\	.
.	.	.	.	.	.	0a	.
*	*	*Xlig	*	*	*	*	*
.	.	4c/	.	4e/	.	.	.
.	.	4B/	.	4d/	.	.	.
=5-	=5-	=5-	=5-	=5-	=5-	=5-	=5-
*	*	*2\right	*	*	*	*	*
!LO:TX:t=P:problem=kreska pseudotaktowa	!	!	!	!	!	!	!
1r	.	2c\	.	2e\	.	.	.
!	!	!LO:TX:t=P:problem=kreska pseudotaktowa	!	!	!	!	!
.	.	2d\	-ctus	2f\	.	.	.
*lig	*	*	*	*	*	*	*
!	!	!	!	!	!	!LO:TX:t=P:problem=kreska pseudotaktowa	!
1C	San-	2.G/	San-	2g\	.	1g	-ctus
.	.	.	.	2e\	.	.	.
.	.	4A/	.	.	.	.	.
=6-	=6-	=6-	=6-	=6-	=6-	=6-	=6-
1.G	.	2.B/	.	1d	.	2ra	.
.	.	.	.	.	.	2g/	San-
.	.	4c/	.	.	.	.	.
.	.	2d\	.	2G/	.	2b\	.
*Xlig	*	*	*	*	*	*	*
4F/	.	2e\	.	1c/	.	2cc\	.
4E/	.	.	.	.	.	.	.
=7-	=7-	=7-	=7-	=7-	=7-	=7-	=7-
!	!	!LO:TX:t=P:problem=kreska pseudotaktowa	!	!	!	!	!
2F/	.	1d	-ct(us)	.	.	1dd	.
!	!	!	!	!LO:TX:t=P:problem=kreska pseudotaktowa	!	!	!
2G/	.	.	.	2B/	.	.	.
*lig	*	*	*	*	*	*	*
1C	-ctus	1r	.	2c,/	-ctus	1.ee	.
*	*	*	*	*	*Xij	*	*
.	.	.	.	1g\	San-	.	.
=8-	=8-	=8-	=8-	=8-	=8-	=8-	=8-
!LO:TX:t=P:problem=kreska pseudotaktowa	!	!	!	!	!	!	!
1G	.	2rA	.	.	.	.	.
!	!	!	!	!	!	!LO:TX:t=P:problem=kreska pseudotaktowa	!
.	.	2G/	San-	4f\	.	2dd\	.
.	.	.	.	4e\	.	.	.
*Xlig	*	*	*	*	*	*	*
0r	.	1.d	.	1.f	.	4dd\	.
.	.	.	.	.	.	4cc\	.
.	.	.	.	.	.	4dd\	.
.	.	.	.	.	.	4ee\	.
=9-	=9-	=9-	=9-	=9-	=9-	=9-	=9-
.	.	.	.	.	.	2ff\	.
.	.	4c/	.	2g\	.	1ee	.
.	.	4B/	.	.	.	.	.
!	!	!	!	!LO:TX:t=P:problem=kreska pseudotaktowa	!	!	!
2rG	.	2c\	.	0g	-ctus	.	.
2G/	San-	2d\	.	.	.	1dd\	.
=10-	=10-	=10-	=10-	=10-	=10-	=10-	=10-
*2\right	*	*	*	*	*	*	*
2B\	.	2G/	.	.	.	.	.
!LO:TX:t=P:problem=kreska pseudotaktowa	!	!	!	!	!	!	!
2c\	.	1g	.	.	.	4cc\	.
!	!	!	!	!	!	!LO:TX:t=P:problem=kreska pseudotaktowa	!
.	.	.	.	.	.	4b\	.
1d	.	.	.	1r	.	2.a/	.
.	.	2f\	.	.	.	.	.
.	.	.	.	.	.	4b/	.
=11-	=11-	=11-	=11-	=11-	=11-	=11-	=11-
!	!	!LO:TX:t=P:problem=kreska pseudotaktowa	!	!	!	!	!
2.c\	.	1g	-ctus.	2rc	.	4cc\	.
.	.	.	.	.	.	4dd\	.
.	.	.	.	2c/	Do-	1ee	.
4B\	.	.	.	.	.	.	.
1A	.	1r	.	2e\	-mi-	.	.
.	.	.	.	2f\	-n(us)	4dd\	.
!	!	!	!	!	!	!LO:TX:t=P:problem=kreska pseudotaktowa	!
.	.	.	.	.	.	4cc\	.
=12-	=12-	=12-	=12-	=12-	=12-	=12-	=12-
!LO:TX:t=P:problem=kreska pseudotaktowa	!	!	!	!	!	!	!
*	*	*lig	*	*	*	*	*
1G	-ctus	1G	Do-	2g\	DE-	1b	.
.	.	.	.	1g	.	.	.
0r	.	1d	.	.	.	2.a/	.
.	.	.	.	2f\	.	.	.
.	.	.	.	.	.	4b/	.
*	*	*Xlig	*	*	*	*	*
=13-	=13-	=13-	=13-	=13-	=13-	=13-	=13-
!	!	!	!	!LO:TX:t=P:problem=kreska pseudotaktowa	!	!	!
.	.	2c/	.	0.g	-US	2cc\	.
.	.	2B/	-mi-	.	.	2.dd\	.
*lig	*	*	*	*	*	*	*
1C	Do-	1e	-n(us)	.	.	.	.
.	.	.	.	.	.	4cc\	.
.	.	.	.	.	.	1cc\	.
=14-	=14-	=14-	=14-	=14-	=14-	=14-	=14-
1G	.	2.d\	DE-	.	.	.	.
.	.	.	.	.	.	2b\	.
.	.	4c\	.	.	.	.	.
*Xlig	*	*	*	*	*	*	*
2F/	-mi-	2d\	-US	1re	.	2a/	.
!	!	!	!	!	!	!LO:TX:t=P:problem=kreska pseudotaktowa	!
2E/	-n(us)	1e\	Sab-	.	.	2g/	.
=15-	=15-	=15-	=15-	=15-	=15-	=15-	=15-
1A	DE-	.	.	1c	DE-	1cc	.
.	.	4d\	.	.	.	.	.
!	!	!LO:TX:t=P:problem=kreska pseudotaktowa	!	!	!	!	!
.	.	4c\	.	.	.	.	.
1.G	-US	1d	.	0g	.	2b,\	-ctus
*	*	*	*	*	*	*custos:b	*
!	!	!	!	!	!	!LO:TX:t=P:problem=kreska pseudotaktowa	!
.	.	.	.	.	.	2g/	Do-
!	!	!	!	!	!	!LO:LB:g=original	!
=16-	=16-	=16-	=16-	=16-	=16-	=16-	=16-
.	.	2G/	.	.	.	2b\	-mi-
4F/	.	1c	-ba-	.	.	2cc\	-n(us)
4E/	.	.	.	.	.	.	.
!	!	!	!	!	!	!LO:TX:t=P:problem=kreska pseudotaktowa	!
2D/	Sab-	.	.	1f	.	1dd	De-
2D/	-ba-	2B/	.	.	.	.	.
=17-	=17-	=17-	=17-	=17-	=17-	=17-	=17-
!LO:TX:t=P:problem=kreska pseudotaktowa	!	!LO:TX:t=P:problem=kreska pseudotaktowa	!	!	!	!	!
1C	-oth	1c	-oth	1.e	-US	1.ee	.
!	!	!LO:LB:g=original	!	!	!	!	!
00r	.	0r	.	.	.	.	.
!	!	!	!	!LO:TX:t=P:problem=kreska pseudotaktowa	!	!	!
.	.	.	.	[<2g\	Sab-	2dd\	-us
=18-	=18-	=18-	=18-	=18-	=18-	=18-	=18-
.	.	.	.	2g\]	.	4dd\	.
.	.	.	.	.	.	4cc\	.
.	.	.	.	4f/	.	4dd\	.
!	!	!	!	!LO:TX:t=P:problem=kreska pseudotaktowa	!	!	!
.	.	.	.	4e/	.	4ee\	.
!	!	!	!	!LO:LB:g=original	!	!	!
!	!	!LO:TX:t=P:problem=kreska pseudotaktowa	!	!	!	!	!
.	.	1r	.	2d/	.	2ff\	Sab-
.	.	.	.	2c/	.	1ee\	.
=19-	=19-	=19-	=19-	=19-	=19-	=19-	=19-
.	.	2rA	.	0g	-ba-	.	.
.	.	2G/	Do-	.	.	4dd\	.
.	.	.	.	.	.	4cc\	.
!LO:TX:t=P:problem=kreska pseudotaktowa	!	!	!	!	!	!	!
0r	.	2B/	-mi-	.	.	2dd\	.
.	.	2c\	-n(us)	.	.	1ee\	-ba-
=20-	=20-	=20-	=20-	=20-	=20-	=20-	=20-
*	*	*	*	*lig	*	*	*
.	.	1d	DE-	1f	-oth.	.	.
.	.	.	.	.	.	2dd\	.
!	!	!	!	!LO:TX:t=P:problem=kreska pseudotaktowa	!	!LO:TX:t=P:problem=kreska pseudotaktowa	!
1C	Do-	2c\	.	1e	.	1ee	-oth.
.	.	1e\	-US	.	.	.	.
*	*	*	*	*Xlig	*	*	*
=21-	=21-	=21-	=21-	=21-	=21-	=21-	=21-
2E/	-mi-	.	.	0re	.	0r	.
!	!	!LO:TX:t=P:problem=kreska pseudotaktowa	!	!	!	!	!
2F/	.	2d\	.	.	.	.	.
1G	-n(us)	4d\	Sab-	.	.	.	.
.	.	4c\	.	.	.	.	.
.	.	4d\	.	.	.	.	.
.	.	4e\	.	.	.	.	.
=22-	=22-	=22-	=22-	=22-	=22-	=22-	=22-
0A	DE-	2f\	.	2rd	.	2ra	.
.	.	1e	.	2c/	Do-	1a	Sab-
.	.	.	.	2e\	-mi-	.	.
.	.	4d\	-ba-	2f\	-n(us)	2cc\	.
.	.	4c\	.	.	.	.	.
=23-	=23-	=23-	=23-	=23-	=23-	=23-	=23-
!LO:TX:t=P:problem=kreska pseudotaktowa	!	!LO:TX:t=P:problem=kreska pseudotaktowa	!	!	!	!	!
1G	.	1d	-oth	1.g	De-	2b/	-ba-
.	.	.	.	.	.	2g/	.
!	!	!	!	!	!	!LO:TX:t=P:problem=kreska pseudotaktowa	!
2.D/	-US	2r	.	.	.	1a	-oth.
*	*	*	*ij	*	*	*	*
.	.	1d\	Do-	2f\	.	.	.
*custos:F	*	*	*	*	*	*	*
!LO:TX:t=P:problem=kreska pseudotaktowa	!	!	!	!	!	!	!
4E/	Sab-	.	.	.	.	.	.
!LO:LB:g=original	!	!	!	!	!	!	!
=24-	=24-	=24-	=24-	=24-	=24-	=24-	=24-
4F/	.	.	.	1.a	-us	1r	.
4G/	.	.	.	.	.	.	.
2.A\	.	2c\	.	.	.	.	.
.	.	1e	-mi-	.	.	2ra	.
4B\	.	.	.	.	.	.	.
2c\	.	.	.	2g\	Sab-	2g/	Do-
=25-	=25-	=25-	=25-	=25-	=25-	=25-	=25-
!	!	!	!	!LO:TX:t=P:problem=kreska pseudotaktowa	!	!	!
2G/	.	2d\	.	0g	-ba-	2b\	-mi-
1c	.	2c\	-n(us)	.	.	2cc\	-n(us)
.	.	1G	DE-	.	.	1dd	De-
!LO:TX:t=P:problem=kreska pseudotaktowa	!	!	!	!	!	!	!
2B\	.	.	.	.	.	.	.
=26-	=26-	=26-	=26-	=26-	=26-	=26-	=26-
2.A/	.	2.c/	-US-	2.e\	-oth	0ee	-us
8G/L	.	8B/L	.	4f\	.	.	.
8F/J	.	8A/J	.	.	.	.	.
2E/	.	2B/	-Sab-	2g,\	.	.	.
2C/	.	2c/	.	2G/	Do-	.	.
=27-	=27-	=27-	=27-	=27-	=27-	=27-	=27-
1G	.	0d	-ba-	2.B/	-mi-	4dd\	Sab-
.	.	.	.	.	.	4cc\	.
.	.	.	.	.	.	4dd\	.
.	.	.	.	4c/	.	4ee\	.
2D/	.	.	.	2.d/	-n(us)	2ff\	.
1d\	.	.	.	.	.	1dd\	.
.	.	.	.	4e/	.	.	.
=28-	=28-	=28-	=28-	=28-	=28-	=28-	=28-
!	!	!LO:TX:t=P:problem=kreska pseudotaktowa	!	!	!	!	!
.	.	1A	-oth	2f\	De-	.	.
*	*	*	*Xij	*	*	*	*
2c\	.	.	.	2e\	-us	1ee	.
2B\	.	0r	.	2f\	.	.	.
!	!	!	!	!LO:TX:t=P:problem=kreska pseudotaktowa	!	!	!
2G/	.	.	.	2g\	Sab-	1dd\	-ba-
=29-	=29-	=29-	=29-	=29-	=29-	=29-	=29-
1A	-ba-	.	.	1e	.	.	.
!	!	!	!	!	!	!LO:TX:t=P:problem=kreska pseudotaktowa	!
.	.	.	.	.	.	2cc\	.
!LO:TX:t=P:problem=kreska pseudotaktowa	!	!	!	!	!	!	!
1D	-oth	2r	.	2.d/	.	2dd,\	-oth
.	.	1d\	Do-	.	.	2.a/	Sab-
.	.	.	.	4e/	.	.	.
=30-	=30-	=30-	=30-	=30-	=30-	=30-	=30-
0rA	.	.	.	4f\	.	.	.
.	.	.	.	4g\	.	4b/	.
.	.	2c\	-mi-	1a	.	2.cc\	.
.	.	1e	-n(us)	.	.	.	.
.	.	.	.	.	.	4b/	.
.	.	.	.	1g\	.	4a/	.
.	.	.	.	.	.	4g/	.
=31-	=31-	=31-	=31-	=31-	=31-	=31-	=31-
!	!	!LO:TX:t=P:problem=kreska pseudotaktowa	!	!	!	!	!
2rG	.	1d	DE-	.	.	1a	.
!	!	!	!	!LO:TX:t=P:problem=kreska pseudotaktowa	!	!	!
1D	Sab-	.	.	2f\	.	.	.
.	.	2A/	-US	2d/	.	2f/	.
2C/	.	2.c/	Sab-	1e\	.	1a/	.
=32-	=32-	=32-	=32-	=32-	=32-	=32-	=32-
*lig	*	*	*	*	*	*	*
1E	-ba-	.	.	.	.	.	.
.	.	4B/	.	.	.	.	.
.	.	2G/	.	2c/	-ba-	1g	.
1D	.	1A	-ba-	[1dl;	-oth.	.	.
.	.	.	.	.	.	2f#X/	-ba-
*Xlig	*	*	*	*	*	*	*
!	!	!	!	!LO:LB:g=original	!	!	!
=33-	=33-	=33-	=33-	=33-	=33-	=33-	=33-
0Gl;	-oth.	0Bl;	-oth.	0d]	.	0gl;	-oth.
!	!	!LO:LB:g=original	!	!	!	!LO:LB:g=original	!
=34||	=34||	=34||	=34||	=34||	=34||	=34||	=34||
*>B	*	*>B	*	*>B	*	*>B	*
*M2/1	*	*M2/1	*	*M2/1	*	*M2/1	*
*met(C|)	*	*met(C|)	*	*met(C|)	*	*met(C|)	*
!LO:TX:a:i:t=Pleni sunt \nTacet	!	!LO:TX:b:t=Pleni sunt.	!	!	!	!	!
!	!	!LO:TX:t=P:problem=przed kluczem inicjał P	!	!LO:TX:t=P:problem=przed kluczem inicjał P	!	!LO:TX:t=P:problem=przed kluczem inicjał P	!
0ryy	.	00r	.	0r	.	1dd	Ple-
.	.	.	.	.	.	2cc\	-ni
.	.	.	.	.	.	2dd\	sunt
=35-	=35-	=35-	=35-	=35-	=35-	=35-	=35-
!	!	!	!	!LO:TX:t=P:problem=kreska pseudotaktowa	!	!	!
0ryy	.	.	.	1r	.	2ee\	cae-
.	.	.	.	.	.	1dd	.
.	.	.	.	1g	Ple-	.	.
.	.	.	.	.	.	4cc\	.
!	!	!	!	!	!	!LO:TX:t=P:problem=kreska pseudotaktowa	!
.	.	.	.	.	.	4b\	.
=36-	=36-	=36-	=36-	=36-	=36-	=36-	=36-
0ryy	.	00r	.	2f\	-ni	2a/	.
.	.	.	.	2g\	.	1ee	.
.	.	.	.	2a\	sunt	.	.
.	.	.	.	1g\	cae-	2ee\	.
=37-	=37-	=37-	=37-	=37-	=37-	=37-	=37-
0ryy	.	.	.	.	.	4dd\	.
.	.	.	.	.	.	4cc\	.
.	.	.	.	4f\	.	4dd\	.
!	!	!	!	!LO:TX:t=P:problem=kreska pseudotaktowa	!	!	!
.	.	.	.	4e\	.	4ee\	.
*	*	*	*	*	*	*lig	*
.	.	.	.	2d/	.	1ff	-li
.	.	.	.	1a\	-li	.	.
=38-	=38-	=38-	=38-	=38-	=38-	=38-	=38-
!	!	!LO:TX:t=P:problem=kreska pseudotaktowa	!	!	!	!LO:TX:t=P:problem=kreska pseudotaktowa	!
0ryy	.	00r	.	.	.	1ee	.
!	!	!	!	!LO:TX:t=P:problem=kreska pseudotaktowa	!	!	!
.	.	.	.	2a\	et	.	.
*	*	*	*	*	*	*Xlig	*
.	.	.	.	2.g\	ter-	2r	.
.	.	.	.	.	.	1dd\	et
.	.	.	.	4f\	.	.	.
=39-	=39-	=39-	=39-	=39-	=39-	=39-	=39-
0ryy	.	.	.	2d/	.	.	.
.	.	.	.	2f\	.	2cc\	.
*	*	*	*	*	*	*lig	*
.	.	.	.	4c/	.	1ee	ter-
.	.	.	.	4d/	.	.	.
.	.	.	.	4e/	.	.	.
.	.	.	.	4f/	.	.	.
=40-	=40-	=40-	=40-	=40-	=40-	=40-	=40-
0ryy	.	2r	.	2g\	.	1dd	.
.	.	1d	Et	2.f\	.	.	.
*	*	*	*	*	*	*Xlig	*
.	.	.	.	.	.	2a/	.
.	.	.	.	4e/	.	.	.
.	.	2c\	.	1a\	.	2.cc\	.
=41-	=41-	=41-	=41-	=41-	=41-	=41-	=41-
*	*	*lig	*	*	*	*	*
0ryy	.	1e	ter-	.	.	.	.
.	.	.	.	.	.	4b/	.
.	.	.	.	1g	.	4a/	.
.	.	.	.	.	.	4g/	.
.	.	1d	.	.	.	1a	.
.	.	.	.	2f\	.	.	.
*	*	*Xlig	*	*	*	*	*
=42-	=42-	=42-	=42-	=42-	=42-	=42-	=42-
!	!	!LO:TX:t=P:problem=kreska pseudotaktowa	!	!	!	!	!
*	*	*	*	*lig	*	*	*
0ryy	.	1G	-ra	1g	-ra	0b	.
!	!	!	!	!LO:TX:t=P:problem=kreska pseudotaktowa	!	!	!
.	.	2r	.	1G	.	.	.
.	.	2.d\	glo-	.	.	.	.
*	*	*	*	*Xlig	*	*	*
=43-	=43-	=43-	=43-	=43-	=43-	=43-	=43-
!	!	!	!	!LO:TX:t=P:problem=kreska pseudotaktowa	!	!LO:TX:t=P:problem=kreska pseudotaktowa	!
0ryy	.	.	-ri-	1r	.	1a	-ra
.	.	4d\	-ri-	.	.	.	.
.	.	2d\	-a	.	.	.	.
.	.	2.c\	.	2.g\	glo-	1r	.
.	.	4d\	.	4g\	-ri-	.	.
=44-	=44-	=44-	=44-	=44-	=44-	=44-	=44-
0ryy	.	2e\	tu-	2g\	-a	2r	.
.	.	1d	.	1f	glo-	2.dd\	glo-
.	.	.	.	.	.	4dd\	-ri-
!	!	!	!	!LO:TX:t=P:problem=kreska pseudotaktowa	!	!LO:TX:t=P:problem=kreska pseudotaktowa	!
.	.	4c/	.	2g\	.	2dd\	-a
.	.	4B/	.	.	.	.	.
=45-	=45-	=45-	=45-	=45-	=45-	=45-	=45-
!	!	!LO:TX:t=P:problem=kreska pseudotaktowa	!	!	!	!	!
0ryy	.	1A	-â	1a	.	2.cc\	tu-
.	.	.	.	.	.	4dd\	.
.	.	0r	.	2.g\	.	2ee\	.
.	.	.	.	.	.	1dd\	.
.	.	.	.	8f\L	.	.	.
.	.	.	.	8e\J	.	.	.
=46-	=46-	=46-	=46-	=46-	=46-	=46-	=46-
0ryy	.	.	.	2.d/	.	.	.
.	.	.	.	.	.	4cc\	-a
!	!	!	!	!LO:TX:t=P:problem=kreska pseudotaktowa	!	!LO:TX:t=P:problem=kreska pseudotaktowa	!
.	.	.	.	4e/	.	4b\	.
!	!	!LO:TX:t=P:problem=kreska pseudotaktowa	!	!	!	!	!
.	.	1r	.	4f/	.	4a/	glo-
!	!	!	!	!LO:TX:t=P:problem=kreska pseudotaktowa	!	!	!
.	.	.	.	4g/	.	4b/	.
*	*	*	*	*2\left	*	*	*
.	.	.	.	2.a\	.	4cc/	.
*	*	*	*	*2\right	*	*	*
.	.	.	.	.	.	4dd/	.
=47-	=47-	=47-	=47-	=47-	=47-	=47-	=47-
0ryy	.	2r	.	.	.	2ee\	.
.	.	.	.	4g\	.	.	.
.	.	2.d\	glo-	(4f\	-ri-	1ff	.
.	.	.	.	4e\)	.	.	.
*	*	*	*	*lig	*	*	*
.	.	.	.	1f	-a	.	.
.	.	4d\	-ri-	.	.	.	.
.	.	2d\	-a	.	.	4ee\	.
.	.	.	.	.	.	4dd\	.
=48-	=48-	=48-	=48-	=48-	=48-	=48-	=48-
!	!	!	!	!LO:TX:t=P:problem=kreska pseudotaktowa	!	!	!
!	!	!	!	!LO:SIC:v:t=custos niewyraźny	!	!	!
0ryy	.	2.c\	.	1g	.	2ee\	.
*	*	*	*	*	*	*custos:b	*
!	!	!	!	!	!	!LO:TX:t=P:problem=kreska pseudotaktowa	!
.	.	.	.	.	.	2cc\	.
.	.	4d\	.	.	.	.	.
*	*	*	*	*Xlig	*	*	*
!	!	!	!	!LO:LB:g=original	!	!LO:LB:g=original	!
.	.	2e\	tu-	2g\	glo-	1b	.
.	.	1d\	.	1f\	.	.	.
=49-	=49-	=49-	=49-	=49-	=49-	=49-	=49-
0ryy	.	.	.	.	.	2a/	.
.	.	4c/	.	4e/	.	1dd	.
.	.	4B/	.	4d/	.	.	.
!	!	!LO:TX:t=P:problem=kreska pseudotaktowa	!	!	!	!	!
.	.	1A	-â	1e	.	.	.
!	!	!	!	!	!	!LO:TX:t=P:problem=kreska pseudotaktowa	!
.	.	.	.	.	.	2cc\	-ri-
=50-	=50-	=50-	=50-	=50-	=50-	=50-	=50-
0ryy	.	1rc	.	2.d/	.	2dd\	-a
.	.	.	.	.	.	2.ff\	tu-
.	.	.	.	4e/	.	.	.
.	.	2rG	.	2f\	.	.	.
.	.	.	.	.	.	4ee\	.
!	!	!	!	!LO:TX:t=P:problem=kreska pseudotaktowa	!	!	!
.	.	2G/	glo-	2g\	.	1dd\	.
=51-	=51-	=51-	=51-	=51-	=51-	=51-	=51-
0ryy	.	2B/	-ri-	2d/	.	.	.
.	.	2c/	-a	1g	.	4cc\	.
.	.	.	.	.	.	4b\	.
.	.	1d	.	.	.	1a	.
.	.	.	.	2f\	.	.	.
=52-	=52-	=52-	=52-	=52-	=52-	=52-	=52-
!	!	!	!	!	!	!LO:TX:t=P:problem=kreska pseudotaktowa	!
0ryy	.	2e\	tu-	1.g	.	1g	-a
.	.	1c	.	.	.	.	.
.	.	.	.	.	.	2ra	.
.	.	2d\	.	2f\	.	1a/	glo-
=53-	=53-	=53-	=53-	=53-	=53-	=53-	=53-
0ryy	.	1A	-â	2.e\	.	.	.
.	.	.	.	.	.	2cc\	.
.	.	.	.	4f\	-ri-	.	.
!	!	!LO:TX:t=P:problem=kreska pseudotaktowa	!	!	!	!	!
.	.	1G	.	2g\	-a	2b/	-ri-
!	!	!	!	!	!	!LO:TX:t=P:problem=kreska pseudotaktowa	!
.	.	.	.	1d/	glo-	2g/	-a
=54-	=54-	=54-	=54-	=54-	=54-	=54-	=54-
0ryy	.	0r	.	.	.	2.a/	glo-
!	!	!	!	!LO:TX:t=P:problem=kreska pseudotaktowa	!	!	!
.	.	.	.	2f\	.	.	.
.	.	.	.	.	.	4b/	.
.	.	.	.	2e/	.	4cc\	.
.	.	.	.	.	.	4dd\	.
.	.	.	.	2c/	.	2ee\	.
=55-	=55-	=55-	=55-	=55-	=55-	=55-	=55-
0ryy	.	2r	.	2d/	.	2a/	.
*	*	*	*ij	*	*	*	*
.	.	1d	glo-	2.f\	.	2.dd\	.
.	.	.	.	4e\	-ri-	4cc\	.
!	!	!	!	!	!	!LO:TX:t=P:problem=kreska pseudotaktowa	!
.	.	2f\	-ri-	2.a\	-a	2a/	.
=56-	=56-	=56-	=56-	=56-	=56-	=56-	=56-
0ryy	.	2e\	.	.	.	2b\	.
.	.	.	.	4g\	.	.	.
.	.	2c\	-a	1g	Tu-	2cc\	.
.	.	1d	tu-	.	.	1a	-ri-
.	.	.	.	2f\	.	.	.
=57-	=57-	=57-	=57-	=57-	=57-	=57-	=57-
!	!	!	!	!LO:TX:t=P:problem=kreska pseudotaktowa	!	!	!
0ryy	.	[0Gl;	-â	[0gl;	-â	2b\	-a
*	*	*	*Xij	*	*	*	*
.	.	.	.	.	.	2.dd\	tu-
.	.	.	.	.	.	4cc/	.
.	.	.	.	.	.	4b/	.
!	!	!	!	!	!	!LO:TX:t=P:problem=kreska pseudotaktowa	!
.	.	.	.	.	.	4a/	.
=58-	=58-	=58-	=58-	=58-	=58-	=58-	=58-
!	!	!	!	!	!	!LO:TX:b:i:t=Osanna Vertat	!
0ryy	.	0G]	.	0g]	.	0bl;	-â.
!	!	!LO:LB:g=original	!	!	!	!LO:PB:g=original	!
=59||	=59||	=59||	=59||	=59||	=59||	=59||	=59||
*>C	*	*>C	*	*>C	*	*>C	*
*M2/1	*	*M2/1	*	*M2/1	*	*M2/1	*
*met(C|)	*	*met(C|)	*	*met(C|)	*	*met(C|)	*
!LO:TX:t=P:problem=przed kluczem inicjał O	!	!LO:TX:t=P:problem=przed kluczem inicjał O	!	!LO:TX:t=P:problem=przed kluczem inicjał O	!	!LO:TX:t=P:problem=przed kluczem inicjał O	!
!	!	!	!	!LO:TX:t=P:problem=kreska pseudotaktowa	!	!	!
0r	.	1d	O-	00r	.	0r	.
.	.	2e\	-san-	.	.	.	.
.	.	1d\	.	.	.	.	.
=60-	=60-	=60-	=60-	=60-	=60-	=60-	=60-
!	!	!	!	!	!	!LO:TX:t=P:problem=kreska pseudotaktowa	!
1G	O-	.	.	.	.	1r	.
.	.	4c/	.	.	.	.	.
!	!	!LO:TX:t=P:problem=kreska pseudotaktowa	!	!	!	!	!
.	.	4B/	.	.	.	.	.
2A/	-san-	2c\	.	.	.	2ra	.
1G/	.	2d\	.	.	.	2g/	O-
=61-	=61-	=61-	=61-	=61-	=61-	=61-	=61-
.	.	2G/	.	1g	O-	2b\	-san-
4F/	.	1c	.	.	.	2cc\	-na
4E/	.	.	.	.	.	.	.
2F/	.	.	.	2a\	-san-	1dd	in
2G/	.	2B/	.	1g\	.	.	.
=62-	=62-	=62-	=62-	=62-	=62-	=62-	=62-
!LO:TX:t=P:problem=kreska pseudotaktowa	!	!LO:TX:t=P:problem=kreska pseudotaktowa	!	!	!	!LO:TX:t=P:problem=kreska pseudotaktowa	!
1C	-na	1c	-na	.	.	1ee	ex-
.	.	.	.	4f\	.	.	.
.	.	.	.	4e\	.	.	.
!LO:LB:g=original	!	!	!	!	!	!	!
2rG	.	0r	.	2f\	.	2.dd\	-cel-
2G/	O-	.	.	2g\	.	.	.
.	.	.	.	.	.	4ee\	.
=63-	=63-	=63-	=63-	=63-	=63-	=63-	=63-
2.A\	-san-	.	.	2.c,/	-na	2ff\	.
.	.	.	.	.	.	1ee	.
*	*	*	*	*	*ij	*	*
4B\	.	.	.	4c/	O-	.	.
2c\	.	1r	.	2e\	-san	.	.
!	!	!	!	!LO:TX:t=P:problem=kreska pseudotaktowa	!	!	!
2A\	.	.	.	2f\	na	4dd\	.
*	*	*	*	*	*Xij	*	*
.	.	.	.	.	.	4cc\	.
!	!	!	!	!LO:LB:g=original	!	!	!
=64-	=64-	=64-	=64-	=64-	=64-	=64-	=64-
!LO:TX:t=P:problem=kreska pseudotaktowa	!	!	!	!	!	!	!
1G	-na	2rA	.	0g	in	2.b\	.
.	.	2G/	O-	.	.	.	.
.	.	.	.	.	.	4cc\	.
0rG	.	2B/	-san-	.	.	2dd\	.
!	!	!LO:TX:t=P:problem=kreska pseudotaktowa	!	!	!	!	!
.	.	2c\	-na	.	.	1ee\	.
=65-	=65-	=65-	=65-	=65-	=65-	=65-	=65-
.	.	1d	in	1f	ex-	.	.
!	!	!	!	!	!	!LO:TX:t=P:problem=kreska pseudotaktowa	!
.	.	.	.	.	.	2dd\	.
2rG	.	2c\	ex-	0e	-cel-	1.ee	.
2C/	O-	2c\	-cel-	.	.	.	.
=66-	=66-	=66-	=66-	=66-	=66-	=66-	=66-
!	!	!LO:TX:t=P:problem=kreska pseudotaktowa	!	!	!	!	!
2.E/	-san-	0B	-ſis.	.	.	.	.
.	.	.	.	.	.	4dd\	.
4F/	.	.	.	.	.	4cc\	.
2.G/	-na	.	.	0d	.	4b\	.
.	.	.	.	.	.	4cc\	.
!	!	!	!	!	!	!LO:TX:t=P:problem=kreska pseudotaktowa	!
.	.	.	.	.	.	2dd\	.
4F/	.	.	.	.	.	.	.
=67-	=67-	=67-	=67-	=67-	=67-	=67-	=67-
2G/	.	2r	.	.	.	2b/	.
*	*	*	*ij	*	*	*	*
2B\	in	1d	O-	.	.	2g/	.
!	!	!	!	!LO:TX:t=P:problem=kreska pseudotaktowa	!	!LO:TX:t=P:problem=kreska pseudotaktowa	!
2.A/	ex-	.	.	1e	-sis	1a	-sis
!	!	!LO:TX:t=P:problem=kreska pseudotaktowa	!	!	!	!	!
.	.	2c\	-san-	.	.	.	.
4G/	.	.	.	.	.	.	.
=68-	=68-	=68-	=68-	=68-	=68-	=68-	=68-
2E/	-cel-	2e\	.	2r	.	1r	.
2G/	.	1d	-na	1g	in	.	.
1.D	.	.	.	.	.	2r	.
!	!	!	!	!LO:TX:t=P:problem=kreska pseudotaktowa	!	!	!
.	.	4c/	in	2f\	.	1dd\	in
!	!	!LO:TX:t=P:problem=kreska pseudotaktowa	!	!	!	!	!
.	.	4B/	.	.	.	.	.
=69-	=69-	=69-	=69-	=69-	=69-	=69-	=69-
.	.	2.A/	ex-	1a	ex-	.	.
2F/	.	.	.	.	.	2cc\	ex-
.	.	4B/	.	.	.	.	.
1C	.	1c	.	2g\	.	1ee	-cel-
.	.	.	.	1g\	-cel-	.	.
=70-	=70-	=70-	=70-	=70-	=70-	=70-	=70-
!	!	!	!	!	!	!LO:TX:t=P:problem=kreska pseudotaktowa	!
1D	.	1A	-cel-	.	.	1dd	.
.	.	.	.	2f\	.	.	.
!LO:TX:t=P:problem=kreska pseudotaktowa	!	!LO:TX:t=P:problem=kreska pseudotaktowa	!	!LO:TX:t=P:problem=kreska pseudotaktowa	!	!	!
1G	-sis	0G	-ſis	1g	-sis.	2.b/	.
*	*	*	*Xij	*	*	*	*
.	.	.	.	.	.	4a/	.
=71-	=71-	=71-	=71-	=71-	=71-	=71-	=71-
1r	.	.	.	2r	.	4b\	.
.	.	.	.	.	.	4cc\	.
.	.	.	.	2g\	O-	2.dd\	.
2rG	.	0r	.	2g\	-san-	.	.
.	.	.	.	.	.	4cc/	.
*	*ij	*	*	*	*	*	*
!	!	!	!	!LO:TX:t=P:problem=kreska pseudotaktowa	!	!	!
2G/	O-	.	.	2g\	-na	4b/	.
.	.	.	.	.	.	4a/	.
=72-	=72-	=72-	=72-	=72-	=72-	=72-	=72-
2G/	-san-	.	.	2d/	in	2g/	.
2G/	-na	.	.	1g	.	2b/	.
!	!	!LO:TX:t=P:problem=kreska pseudotaktowa	!	!	!	!	!
1D	in	1r	.	.	.	1a	.
.	.	.	.	2f\	.	.	.
=73-	=73-	=73-	=73-	=73-	=73-	=73-	=73-
4E/	ex-	2r	.	1.g	ex-	1g	-sis.
4F/	.	.	.	.	.	.	.
4G/	.	2d\	O-	.	.	.	.
4A/	.	.	.	.	.	.	.
!	!	!	!	!	!	!LO:LB:g=original	!
4B\	.	2d\	-san-	.	.	0r	.
4c\	.	.	.	.	.	.	.
!	!	!LO:TX:t=P:problem=kreska pseudotaktowa	!	!	!	!	!
1d\	-cel-	2d\	-na	2f\	.	.	.
=74-	=74-	=74-	=74-	=74-	=74-	=74-	=74-
!	!	!	!	!LO:TX:t=P:problem=kreska pseudotaktowa	!	!	!
.	.	1A	in	1e	-cel-	.	.
2c\	.	.	.	.	.	.	.
*lig	*	*	*	*	*	*	*
1d	-sis	2B/	ex-	2d/	.	2r	.
*	*Xij	*	*	*	*	*	*
!	!	!	!	!	!	!LO:TX:t=P:problem=kreska pseudotaktowa	!
.	.	2G/	.	1g\	.	2dd\	O-
=75-	=75-	=75-	=75-	=75-	=75-	=75-	=75-
*	*	*custos:G	*	*	*	*	*
!LO:TX:t=P:problem=kreska pseudotaktowa	!	!LO:TX:t=P:problem=kreska pseudotaktowa	!	!	!	!	!
1D	.	1d	.	.	.	2dd\	-san-
.	.	.	.	2f\	.	2dd\	-na
*Xlig	*	*	*	*	*	*	*
!	!	!LO:PB:g=original	!	!	!	!LO:TX:t=P:problem=kreska pseudotaktowa	!
1rA	.	4G/	-cel-	1g	.	1b	in
.	.	4A/	.	.	.	.	.
.	.	4B/	.	.	.	.	.
.	.	4c/	.	.	.	.	.
=76-	=76-	=76-	=76-	=76-	=76-	=76-	=76-
2r	.	4d\	.	2f\	.	1.a	ex-
.	.	4e\	.	.	.	.	.
2d\	O-	2.f\	.	2.a\	.	.	.
2d\	-san-	.	.	.	.	.	.
.	.	4e\	.	4g\	.	.	.
2d\	-na	1d\	.	2f\	.	2a/	-cel-
=77-	=77-	=77-	=77-	=77-	=77-	=77-	=77-
!	!	!	!	!	!	!LO:TX:t=P:problem=kreska pseudotaktowa	!
1A	in	.	.	1e	.	1a	-ſis
!	!	!LO:TX:t=P:problem=kreska pseudotaktowa	!	!	!	!	!
.	.	2c/	.	.	.	.	.
2B\	.	2.d\	.	2d/	.	2r	.
*	*	*	*	*	*	*	*ij
2.G/	ex-	.	.	1g\	.	2dd\	O-
.	.	4c/	.	.	.	.	.
=78-	=78-	=78-	=78-	=78-	=78-	=78-	=78-
.	.	2B/	.	.	.	2dd\	-san-
4F/	.	.	.	.	.	.	.
!	!	!	!	!	!	!LO:TX:t=P:problem=kreska pseudotaktowa	!
2D/	-cel-	2A/	.	2f\	.	2dd\	-na
*custos:G	*	*	*	*	*	*	*
!LO:TX:t=P:problem=kreska pseudotaktowa	!	!	!	!LO:TX:t=P:problem=kreska pseudotaktowa	!	!	!
1E	-ſis	2G,/	-sis	0g	-sis.	1b	in
*	*	*	*ij	*	*	*	*
.	.	2B/	in	.	.	.	.
!LO:LB:g=original	!	!	!	!	!	!	!
=79-	=79-	=79-	=79-	=79-	=79-	=79-	=79-
2rG	.	2c/	ex-	.	.	2g/	ex-
*	*ij	*	*	*	*	*	*
!	!	!LO:TX:t=P:problem=kreska pseudotaktowa	!	!	!	!	!
2G/	O-	2B/	.	.	.	2.b/	-cel-
2G/	-san-	2G/	.	2rd	.	.	.
.	.	.	.	.	.	4a/	.
2G/	-na	2B/	.	1d/	O-	1g/	.
=80-	=80-	=80-	=80-	=80-	=80-	=80-	=80-
1D	in	1A	-cel-	.	.	.	.
!	!	!	!	!LO:SIC:v:s=2f#	!	!LO:TX:t=P:#above:problem	!
.	.	.	.	2f\	.	2f#X/	.
!	!	!LO:TX:t=P:problem=podwójna kreska	!	!	!	!	!
!	!	!LO:TX:a:i:t=vi=	!	!	!	!LO:TX:t=P:problem=kreska pseudotaktowa	!
2E/	.	1G	-sis	2e/	-san-	0.g	-ſis
*	*	*	*Xij	*	*	*	*Xij
!LO:TX:t=P:problem=kreska pseudotaktowa	!	!	!	!LO:TX:t=P:problem=kreska pseudotaktowa	!	!	!
2G/	ex-	.	.	2d/	.	.	.
!	!	!	!	!LO:LB:g=original	!	!	!
=81-	=81-	=81-	=81-	=81-	=81-	=81-	=81-
!	!	!LO:TX:a:i:t=de.	!	!	!	!	!
4C/	-cel-	1c	O-	1e	-na	.	.
4D/	.	.	.	.	.	.	.
4E/	.	.	.	.	.	.	.
4F/	.	.	.	.	.	.	.
1G	.	2.B/	-san-	2.d/	in	.	.
.	.	4c/	.	4e/	.	.	.
=82-	=82-	=82-	=82-	=82-	=82-	=82-	=82-
!	!	!LO:TX:t=P:problem=kreska pseudotaktowa	!	!	!	!	!
2.D/	.	1d	-na	4f\	.	1rff	.
.	.	.	.	4g\	.	.	.
.	.	.	.	1a	.	.	.
4E/	.	.	.	.	.	.	.
2F/	.	2c/	in	.	.	2r	.
2G/	.	2B/	ex-	1g\	ex-	1dd\	in
=83-	=83-	=83-	=83-	=83-	=83-	=83-	=83-
1D	.	1A	-cel-	.	.	.	.
!	!	!	!	!LO:TX:t=P:problem=kreska pseudotaktowa	!	!LO:TX:t=P:problem=kreska pseudotaktowa	!
.	.	.	.	2f\	-cel-	2ff\	.
*	*	*custos:d	*	*	*	*	*
!LO:TX:t=P:problem=kreska pseudotaktowa	!	!LO:TX:t=P:problem=kreska pseudotaktowa	!	!	!	!	!
!	!	!LO:TX:a:i:t=re=	!	!	!	!	!
0G	-ſis	1G	-ſis	1g,	-ſis	2ee\	ex-
*	*Xij	*	*	*	*	*	*
.	.	.	.	.	.	2.dd\	-cel-
=84-	=84-	=84-	=84-	=84-	=84-	=84-	=84-
.	.	2r	.	1g	in	.	.
.	.	.	.	.	.	4cc\	.
!	!	!LO:TX:a:i:t=tro	!	!	!	!LO:TX:t=P:problem=kreska pseudotaktowa	!
.	.	1d	O-	.	.	2b\	.
0r	.	.	.	2f\	.	2a/	.
.	.	2c\	-san-	1a\	ex-	2.cc\	.
=85-	=85-	=85-	=85-	=85-	=85-	=85-	=85-
.	.	1e	.	.	.	.	.
.	.	.	.	.	.	4b/	.
.	.	.	.	1g	-cel-	4a/	.
.	.	.	.	.	.	4g/	.
!LO:TX:t=P:problem=kreska pseudotaktowa	!	!LO:TX:t=P:problem=kreska pseudotaktowa	!	!	!	!	!
1r	.	1d	-na	.	.	1a	.
.	.	.	.	2f\	.	.	.
=86-	=86-	=86-	=86-	=86-	=86-	=86-	=86-
!	!	!	!	!LO:TX:t=P:problem=kreska pseudotaktowa	!	!	!
2rG	.	2.G/	in	1g	-sis.	2g/	.
2G/	O-	.	.	.	.	2.b/	.
.	.	4A/	.	.	.	.	.
2G/	-san-	2.B/	ex-	2rd	.	.	.
.	.	.	.	.	.	4a/	.
2G/	-na	.	.	1d/	O-	1g/	.
.	.	4c/	.	.	.	.	.
=87-	=87-	=87-	=87-	=87-	=87-	=87-	=87-
1D	in	1A	-cel-	.	.	.	.
!	!	!	!	!LO:SIC:v:s=2f#	!	!LO:TX:t=P:#above:problem	!
.	.	.	.	2f/	-san-	2f#X/	.
2E/	.	2.G/	.	2e/	-na	[1gl;	-sis.
2G/	ex-	.	.	2d/	in	.	.
.	.	8A/L	.	.	.	.	.
.	.	8B/J	.	.	.	.	.
=88-	=88-	=88-	=88-	=88-	=88-	=88-	=88-
4C/	-cel-	1c	.	2e/	ex-	0g]	.
4D/	.	.	.	.	.	.	.
4E/	.	.	.	2e/	-cel-	.	.
4F/	.	.	.	.	.	.	.
!LO:N:vis=0	!	!LO:N:vis=0	!	!LO:N:vis=0	!	!	!
1Gl;	-sis.	1Bl;	-sis.	1dl;	-ſis.	.	.
!	!	!LO:LB:g=original	!	!	!	!	!
=89||-	=89||-	=89||-	=89||-	=89||-	=89||-	=89||-	=89||-
*>D	*	*>D	*	*>D	*	*>D	*
*M2/1	*	*M2/1	*	*M2/1	*	*M2/1	*
*met(C|)	*	*met(C|)	*	*met(C|)	*	*met(C|)	*
!LO:TX:t=P:problem=przed kluczem inicjał B	!	!LO:TX:t=P:problem=przed kluczem inicjał B	!	!	!	!	!
!LO:TX:a:t=à 2.	!	!	!	!LO:TX:a:i:t=Benedict(us) Tacet	!	!LO:TX:a:i:t=Benedict(us) Tacet	!
0r	.	1G	Be-	0ryy	.	0ryy	.
.	.	2B/	-ne-	.	.	.	.
.	.	2c/	-di-	.	.	.	.
=90-	=90-	=90-	=90-	=90-	=90-	=90-	=90-
!LO:TX:t=P:problem=kreska pseudotaktowa	!	!	!	!	!	!	!
1r	.	1d	-ctus	0ryy	.	0ryy	.
1C	Be-	1.e	.	.	.	.	.
=91-	=91-	=91-	=91-	=91-	=91-	=91-	=91-
1G	-ne-	.	.	0ryy	.	0ryy	.
!	!	!LO:TX:t=P:problem=kreska pseudotaktowa	!	!	!	!	!
.	.	2d\	Qui	.	.	.	.
2F/	-di-	2d\	Ve-	.	.	.	.
2E/	.	2.e\	.	.	.	.	.
=92-	=92-	=92-	=92-	=92-	=92-	=92-	=92-
1.A	-ct(us)	.	.	0ryy	.	0ryy	.
.	.	4d\	.	.	.	.	.
.	.	4c\	.	.	.	.	.
!	!	!LO:TX:t=P:problem=kreska pseudotaktowa	!	!	!	!	!
.	.	4B\	.	.	.	.	.
.	.	2c\	.	.	.	.	.
2G/	qui	2.d\	.	.	.	.	.
=93-	=93-	=93-	=93-	=93-	=93-	=93-	=93-
2G/	ve-	.	.	0ryy	.	0ryy	.
.	.	4e\	.	.	.	.	.
!	!	!LO:TX:t=P:problem=kreska pseudotaktowa	!	!	!	!	!
2.A/	.	2f\	.	.	.	.	.
.	.	2e\	.	.	.	.	.
4G/	.	.	.	.	.	.	.
4F/	.	2.f\	.	.	.	.	.
4E/	.	.	.	.	.	.	.
=94-	=94-	=94-	=94-	=94-	=94-	=94-	=94-
2D/	.	.	.	0ryy	.	0ryy	.
.	.	4e\	.	.	.	.	.
*custos:E	*	*	*	*	*	*	*
!LO:TX:t=P:problem=kreska pseudotaktowa	!	!	!	!	!	!	!
2F/	.	1d	.	.	.	.	.
!LO:LB:g=original	!	!	!	!	!	!	!
1E	.	.	.	.	.	.	.
.	.	2c\	.	.	.	.	.
=95-	=95-	=95-	=95-	=95-	=95-	=95-	=95-
!LO:TX:t=P:problem=kreska pseudotaktowa	!	!LO:TX:t=P:problem=kreska pseudotaktowa	!	!	!	!	!
1D	.	1d	-nit.	0ryy	.	0ryy	.
1G	-nit	1rg	.	.	.	.	.
=96-	=96-	=96-	=96-	=96-	=96-	=96-	=96-
2.F/	qui	1d	Qui	0ryy	.	0ryy	.
4G/	.	.	.	.	.	.	.
2A/	Ve-	2c\	.	.	.	.	.
!	!	!LO:TX:t=P:problem=kreska pseudotaktowa	!	!	!	!	!
1G/	.	2d\	ve-	.	.	.	.
=97-	=97-	=97-	=97-	=97-	=97-	=97-	=97-
.	.	2e\	.	0ryy	.	0ryy	.
4F/	.	1d	.	.	.	.	.
4E/	.	.	.	.	.	.	.
2.D/	.	.	.	.	.	.	.
.	.	4c/	.	.	.	.	.
!	!	!LO:TX:t=P:problem=kreska pseudotaktowa	!	!	!	!	!
4E/	.	4B/	.	.	.	.	.
=98-	=98-	=98-	=98-	=98-	=98-	=98-	=98-
4F/	.	4A/	.	0ryy	.	0ryy	.
4G/	.	4B/	.	.	.	.	.
!LO:TX:t=P:problem=kreska pseudotaktowa	!	!	!	!	!	!	!
[2A/	.	4c/	.	.	.	.	.
.	.	4d/	.	.	.	.	.
2A/]	.	4e\	.	.	.	.	.
.	.	4f\	.	.	.	.	.
!	!	!LO:TX:t=P:problem=kreska pseudotaktowa	!	!	!	!	!
2G/	.	2g\	.	.	.	.	.
=99-	=99-	=99-	=99-	=99-	=99-	=99-	=99-
4A/	.	2f\	.	0ryy	.	0ryy	.
4G/	.	.	.	.	.	.	.
4F/	.	1e	.	.	.	.	.
4E/	.	.	.	.	.	.	.
1F	.	.	.	.	.	.	.
.	.	2d\	.	.	.	.	.
=100-	=100-	=100-	=100-	=100-	=100-	=100-	=100-
!	!	!LO:TX:t=P:problem=kreska pseudotaktowa	!	!	!	!	!
2E,/	-nit	0e	-nit	0ryy	.	0ryy	.
1A	in	.	.	.	.	.	.
2c\	No-	.	.	.	.	.	.
=101-	=101-	=101-	=101-	=101-	=101-	=101-	=101-
2B\	-mi-	2r	.	0ryy	.	0ryy	.
1G	-ne	1d	in	.	.	.	.
!	!	!LO:TX:t=P:problem=kreska pseudotaktowa	!	!	!	!	!
2F/	.	2f\	No-	.	.	.	.
!	!	!LO:LB:g=original	!	!	!	!	!
=102-	=102-	=102-	=102-	=102-	=102-	=102-	=102-
1A	Do-	2e\	-mi-	0ryy	.	0ryy	.
.	.	2c\	-ne	.	.	.	.
2G/	.	1d	Do-	.	.	.	.
2.D/	.	.	.	.	.	.	.
=103-	=103-	=103-	=103-	=103-	=103-	=103-	=103-
.	.	2.A/	.	0ryy	.	0ryy	.
4E/	.	.	.	.	.	.	.
4F/	.	.	.	.	.	.	.
!LO:TX:t=P:problem=kreska pseudotaktowa	!	!	!	!	!	!	!
4G/	.	4B/	.	.	.	.	.
2.A/	.	4c\	.	.	.	.	.
.	.	4d\	.	.	.	.	.
.	.	1e\	.	.	.	.	.
4G/	.	.	.	.	.	.	.
=104-	=104-	=104-	=104-	=104-	=104-	=104-	=104-
2F/	.	.	.	0ryy	.	0ryy	.
4E/	.	1d	.	.	.	.	.
4D/	.	.	.	.	.	.	.
1E	-mi-	.	.	.	.	.	.
.	.	2c\	-mi-	.	.	.	.
=105-	=105-	=105-	=105-	=105-	=105-	=105-	=105-
!	!	!LO:TX:t=P:problem=kreska pseudotaktowa	!	!	!	!	!
2D,/	-ni	1d	-ni	0ryy	.	0ryy	.
2G/	in	.	.	.	.	.	.
2G/	N(o-	2r	.	.	.	.	.
2G/	-mi)-	2d\	in	.	.	.	.
=106-	=106-	=106-	=106-	=106-	=106-	=106-	=106-
2D/	-ne	2d\	No-	0ryy	.	0ryy	.
1d	Do-	2d\	-mi-	.	.	.	.
!	!	!LO:TX:t=P:problem=kreska pseudotaktowa	!	!	!	!	!
.	.	1A	-ne	.	.	.	.
*custos:d	*	*	*	*	*	*	*
!LO:TX:t=P:problem=kreska pseudotaktowa	!	!	!	!	!	!	!
2c\	.	.	.	.	.	.	.
!LO:LB:g=original	!	!	!	!	!	!	!
=107-	=107-	=107-	=107-	=107-	=107-	=107-	=107-
2d\	.	2B/	Do-	0ryy	.	0ryy	.
2.D/	.	2A/	.	.	.	.	.
.	.	2.d\	.	.	.	.	.
4E/	.	.	.	.	.	.	.
!LO:TX:t=P:problem=kreska pseudotaktowa	!	!	!	!	!	!	!
2F/	.	.	.	.	.	.	.
!	!	!LO:TX:t=P:problem=kreska pseudotaktowa	!	!	!	!	!
.	.	4c/	.	.	.	.	.
=108-	=108-	=108-	=108-	=108-	=108-	=108-	=108-
2G/	.	4B/	.	0ryy	.	0ryy	.
.	.	4A/	.	.	.	.	.
2.A/	.	1c	.	.	.	.	.
4G/	.	.	.	.	.	.	.
1G/	.	2B/	.	.	.	.	.
=109-	=109-	=109-	=109-	=109-	=109-	=109-	=109-
.	.	1A	-mi-	0ryy	.	0ryy	.
2F#X/	-mi-	.	.	.	.	.	.
!LO:TX:b:i:t=Osanna da Capo.	!	!LO:TX:b:i:t=Osanna \nda Capo.	!	!LO:TX:b:i:t=Osanna da Capo.	!	!LO:TX:b:i:t=Osanna da Capo.	!
!LO:TX:b:i:t=Agnus Super Kyrie	!	!LO:TX:b:i:t=Agnus super Kyrie	!	!LO:TX:b:i:t=Agnus Dei\nsuper Kyrie	!	!LO:TX:b:i:t=Agnus super Kyrie	!
!LO:TX:b:i:t=O. ad M. D. Gm.	!	!	!	!	!	!	!
!LO:N:vis=0	!	!LO:N:vis=0	!	!	!	!	!
1Gl;	-ni.	1Bl;	-ni.	.	.	.	.
==	==	==	==	==	==	==	==
*-	*-	*-	*-	*-	*-	*-	*-
!!!system-decoration: [s1,s2,s3,s4]
!!!RDF**kern: < = below
!!!RDF**kern: l = terminal long
!!!ENC: Marta Lawrence
!!!END: 2021-03-18
!!!ENC: Andrzej Borzym
!!!END: 2021-03-02
!!!YEC: Copyright 2022 Narodowy Instytut Fryderyka Chopina (https://polishscores.org)
!!!YEM: Licence CC BY 4.0 (https://creativecommons.org/licenses/by/4.0)
